X: 1
T: Fairy Dance
C: Nathaniel Gow 1802
O: arr. A.Hooper
R: reel
Z: 2019 John Chambers <jc:trillian.mit.edu>
B: BSFC Tune Book XXVI-3
B: BSFC Session Tune Book 2016 p.57
M: C|
L: 1/8
K: D
de \
"A"|: "D"f2(fd) f2(fd) | "D"f2(fd) "A7"cdeg | "D"f2(fd) "G"gfed | "A7"cABc "D"defg :|
"B"|: "D"a2(af) "Bm"b2(ba) | "Em"g2(ge) "A7"a2(ag) | "D"f2(fd) "G"gfed | "A7"cABc "D"defg :|


